X: 568
T: Wigers polska
S: efter soldaten och skomakaren Erik Skoglund Wiger (1860-1940)
O: Hälsingland, Järvsö, Boda
R: Hambopolska
Z: Håkan Lidén, 2008-09-28
M: 3/4
L: 1/8
K: G
g2 B2 c>A | G>F G>B d2 | c>B c>g e>c | B2 B4 | A>B c>d e2 | 
d>A F>A d2 | d>c B>c A>F | G2 G4 :: B2 c2 d2 | e2 e4 | g2 f2 e2 | 
d>g B4 | A>B c>d e2 | d>A F>A d2 | d>c B>c A>F | G2 G4 :|
(:musicend:)

(:music:)
